X: 1
T: The Spike Island Lasses
R: reel
M: 4/4
L: 1/8
K: Dmaj
|=cAGE AD (3DDD|ED (3DDD (3EFG Ad|=cAGE AG (3EFG|Adde fded|
=cAGE AD (3DDD|ED (3DDD (3EFG Ad|=cAGE AG (3EFG|Addc d3 e|
f2df efge|dfed cAAe|fedf ed{ed}cd|Addc d2{ed}cd|
eaag efge|dfed cAGG|Addc d4|Adde fded|
=cAGc ~A3d|~B3G~A3B|=cAGB AG(3EFG|Adde fded|
=cAGc ~A3 c|BGGF ~G3 B|=cAGB AG(3EFG|Addc d3e|
f2 ad faad|faaf geeg|fdAd faad|fage dcAc|
defg ~a3 b|agfa ~g2 ae|fedf edcA|d3e fded|


Tune 737	Setting 26652

